assets/Woman student/Medium-Dark/Flat/woman_student_flat_medium-dark.svg

<svg width="32" height="32" viewBox="0 0 32 32" fill="none" xmlns="http://www.w3.org/2000/svg">
<path d="M23.5899 12.3398C23.8099 11.8898 23.9299 11.3898 23.9299 10.8598C23.9299 10.1598 23.7199 9.50977 23.3599 8.96977C22.9999 8.40977 22.8099 7.76977 22.8099 7.11977V7.10977C22.8099 5.21977 21.2799 3.67977 19.3799 3.67977C19.1899 3.67977 19.0199 3.58977 18.9099 3.43977C18.2899 2.56977 17.2699 2.00977 16.1199 2.00977C14.9699 2.00977 13.9499 2.57977 13.3299 3.43977C13.2299 3.58977 13.0499 3.67977 12.8699 3.67977C10.9799 3.67977 9.43995 5.20977 9.43995 7.10977V7.11977C9.43995 7.77977 9.24995 8.41977 8.88995 8.95977C8.52995 9.49977 8.31995 10.1498 8.31995 10.8498C8.31995 11.3798 8.43995 11.8898 8.65995 12.3298C8.72995 12.4798 8.72995 12.6598 8.65995 12.8098C8.43995 13.2498 8.31995 13.7498 8.31995 14.2698C8.31995 16.1198 9.81995 17.6198 11.6699 17.6198H20.5899C22.4399 17.6198 23.9399 16.1198 23.9399 14.2698C23.9399 13.7398 23.8199 13.2498 23.5999 12.8098C23.5199 12.6598 23.5199 12.4898 23.5899 12.3398Z" fill="#2D242D"/>
<path d="M11.4115 16.5H20.5866C19.1907 15.8579 17.6372 15.5 16 15.5C14.3627 15.5 12.8085 15.8579 11.4115 16.5Z" fill="#212121"/>
<path d="M23 18.5H9L7 24L9 30H23L25 24L23 18.5Z" fill="#212121"/>
<path d="M23 30L23 18.5936C21.6303 21.054 19.0178 22.72 16 22.72C12.9833 22.72 10.3625 21.0551 9.00005 18.5961V30H5.00005V26.5C4.99005 23.09 6.57005 20.03 9.00005 18V18.0128C10.9012 16.4481 13.3391 15.5 16 15.5C18.661 15.5 21.0989 16.4388 23 18.0117V18C25.45 20.02 27 23.09 27 26.5V30H23Z" fill="black"/>
<path d="M12.5 29.99V24.74C12.5 24.46 12.28 24.24 12 24.24C11.72 24.24 11.5 24.46 11.5 24.74V29.99H12.5Z" fill="black"/>
<path d="M16.5 29.99V24.74C16.5 24.46 16.28 24.24 16 24.24C15.72 24.24 15.5 24.46 15.5 24.74V29.99H16.5Z" fill="black"/>
<path d="M20.5 29.99V24.74C20.5 24.46 20.28 24.24 20 24.24C19.72 24.24 19.5 24.46 19.5 24.74V29.99H20.5Z" fill="black"/>
<path d="M16.9201 18.2801L16.2701 18.8601C16.1101 19.0001 15.8801 19.0001 15.7201 18.8601L15.0701 18.2801C14.3501 17.6301 13.9301 16.7001 13.9301 15.7301V12.6401C13.9301 11.5001 14.8501 10.5801 15.9901 10.5801C17.1301 10.5801 18.0501 11.5001 18.0501 12.6401V15.7301C18.0501 16.7001 17.6401 17.6301 16.9201 18.2801Z" fill="#8B5C56"/>
<path d="M13.1612 10.6598C13.1612 11.56 12.4315 12.2898 11.5312 12.2898C10.631 12.2898 9.90125 11.56 9.90125 10.6598C9.90125 9.75956 10.631 9.02979 11.5312 9.02979C12.4315 9.02979 13.1612 9.75956 13.1612 10.6598Z" fill="#8B5C56"/>
<path d="M22.3588 10.6598C22.3588 11.56 21.629 12.2898 20.7288 12.2898C19.8285 12.2898 19.0988 11.56 19.0988 10.6598C19.0988 9.75956 19.8285 9.02979 20.7288 9.02979C21.629 9.02979 22.3588 9.75956 22.3588 10.6598Z" fill="#8B5C56"/>
<path d="M20.19 7.58003H16.89C15.58 7.58003 14.36 6.93003 13.62 5.85003C13.5 5.67003 13.22 5.70003 13.14 5.90003L13.05 6.11003C12.82 6.68003 12.37 7.13003 11.83 7.38003C11.79 7.39003 11.75 7.41003 11.72 7.42003C11.47 7.54003 10.91 7.92003 10.89 8.90003L11.03 12.19C11.15 15.11 13.4 17.06 16.13 17.06C18.86 17.06 21.11 15.11 21.23 12.19L21.36 9.06003C21.34 7.68003 20.38 7.59003 20.19 7.58003Z" fill="#966661"/>
<path d="M16.13 13.9399C15.59 13.9399 15.08 13.8099 14.66 13.5899C14.51 13.5099 14.36 13.6799 14.45 13.8199C14.81 14.3699 15.43 14.7399 16.13 14.7399C16.83 14.7399 17.46 14.3699 17.81 13.8199C17.9 13.6799 17.74 13.5199 17.6 13.5899C17.17 13.8099 16.67 13.9399 16.13 13.9399Z" fill="#990838"/>
<path d="M15.74 10.57L15.21 12.27C15.1 12.62 15.36 12.97 15.73 12.97H16.51C16.88 12.97 17.14 12.62 17.03 12.27L16.5 10.57C16.39 10.2 15.86 10.2 15.74 10.57Z" fill="#75443E"/>
<path d="M13.42 9.5C14.01 9.5 14.49 9.9 14.79 10.36C14.5357 10.4377 14.2889 10.5079 14.0452 10.5773C13.5988 10.7042 13.1628 10.8283 12.71 10.99L12.21 10.54C12 10.35 12.02 10.02 12.24 9.86C12.57 9.63 13.01 9.5 13.42 9.5Z" fill="black"/>
<path d="M18.86 9.5C18.28 9.5 17.8 9.91 17.5 10.36C17.7673 10.4428 18.0275 10.5171 18.286 10.591C18.714 10.7132 19.1373 10.8341 19.58 10.99L20.08 10.54C20.28 10.35 20.27 10.02 20.04 9.86C19.71 9.63 19.27 9.5 18.86 9.5Z" fill="black"/>
<path d="M12.2 10.7001C12.36 10.0701 12.93 9.6001 13.61 9.6001C14.31 9.6001 14.9 10.1001 15.03 10.7701C15.06 10.9201 14.94 11.0501 14.79 11.0501H12.48C12.29 11.0501 12.16 10.8801 12.2 10.7001Z" fill="white"/>
<path d="M20.08 10.7001C19.92 10.0701 19.35 9.6001 18.67 9.6001C17.97 9.6001 17.38 10.1001 17.25 10.7701C17.22 10.9201 17.34 11.0501 17.49 11.0501H19.8C19.99 11.0501 20.12 10.8801 20.08 10.7001Z" fill="white"/>
<path d="M12.89 10.8099C12.89 10.2999 13.31 9.87988 13.82 9.87988C14.33 9.87988 14.75 10.2899 14.75 10.7999C14.75 10.8899 14.74 10.9699 14.71 11.0599H12.92C12.9 10.9799 12.89 10.8999 12.89 10.8099Z" fill="#7D4533"/>
<path d="M19.39 10.8099C19.39 10.2999 18.97 9.87988 18.46 9.87988C17.95 9.87988 17.53 10.2899 17.54 10.8099C17.54 10.8999 17.55 10.9799 17.57 11.0599H19.36C19.38 10.9799 19.39 10.8999 19.39 10.8099Z" fill="#7D4533"/>
<path d="M13.82 10.27C14.11 10.27 14.35 10.51 14.35 10.8C14.35 10.89 14.33 10.98 14.29 11.05H13.35C13.31 10.97 13.29 10.89 13.29 10.8C13.29 10.51 13.53 10.27 13.82 10.27Z" fill="black"/>
<path d="M18.4599 10.27C18.1699 10.27 17.9299 10.51 17.9299 10.8C17.9299 10.89 17.9499 10.98 17.9899 11.05H18.9299C18.9699 10.97 18.9899 10.89 18.9899 10.8C18.9899 10.51 18.7499 10.27 18.4599 10.27Z" fill="black"/>
<path d="M13.6701 10.44C13.6701 10.5339 13.594 10.61 13.5001 10.61C13.4062 10.61 13.3301 10.5339 13.3301 10.44C13.3301 10.3461 13.4062 10.27 13.5001 10.27C13.594 10.27 13.6701 10.3461 13.6701 10.44Z" fill="white"/>
<path d="M18.32 10.44C18.32 10.5339 18.2439 10.61 18.15 10.61C18.0561 10.61 17.98 10.5339 17.98 10.44C17.98 10.3461 18.0561 10.27 18.15 10.27C18.2439 10.27 18.32 10.3461 18.32 10.44Z" fill="white"/>
<path d="M19.6601 8.9302C19.7101 8.9602 19.7501 8.9702 19.8001 8.9702C19.9001 8.9702 19.9901 8.9202 20.0401 8.8302C20.1201 8.7002 20.0701 8.5302 19.9401 8.4502C19.9401 8.4502 19.9355 8.44782 19.9312 8.44553C19.8279 8.39053 18.9585 7.9278 17.9601 8.1102C17.8101 8.1302 17.7101 8.2802 17.7401 8.4302C17.7601 8.5802 17.9101 8.6802 18.0601 8.6502C18.8281 8.51306 19.5209 8.86078 19.6416 8.92137C19.6529 8.92705 19.6601 8.9302 19.6601 8.9302Z" fill="#372128"/>
<path d="M12.21 8.8302C12.26 8.9202 12.35 8.9702 12.45 8.9702C12.5 8.9702 12.54 8.9602 12.59 8.9302C12.59 8.9302 12.5971 8.92714 12.6084 8.92162C12.7288 8.8626 13.4218 8.52302 14.19 8.6602C14.34 8.6902 14.48 8.5902 14.5 8.4302C14.53 8.2802 14.43 8.1402 14.28 8.1102C13.2914 7.92784 12.4226 8.39036 12.319 8.4455C12.3146 8.44781 12.31 8.4502 12.31 8.4502C12.18 8.5302 12.13 8.7002 12.21 8.8302Z" fill="#372128"/>
<path d="M25.33 13.7799C25.22 13.4299 24.9 13.1699 24.51 13.1699C24.12 13.1699 23.8 13.4199 23.69 13.7799L23.11 15.8899C23.04 16.1299 23.22 16.3699 23.47 16.3699H25.54C25.79 16.3699 25.97 16.1299 25.9 15.8899L25.33 13.7799Z" fill="#F9C23C"/>
<path d="M21.3453 3.6H24.11C24.11 3.6 24.1099 3.6 24.11 3.6L24.11 11.68C23.84 11.82 23.65 12.11 23.65 12.44C23.65 12.91 24.03 13.3 24.51 13.3C24.99 13.3 25.37 12.92 25.37 12.44C25.37 12.11 25.18 11.82 24.91 11.68V2.79999L24.9 2.8C24.9 2.36 24.54 2 24.1 2H8.13997C7.69997 2 7.33997 2.36 7.33997 2.8C7.33997 3.24 7.69997 3.6 8.13997 3.6H10.91L10.0299 5.20001L14.5899 5.96001C15.6099 6.11001 16.6399 6.11001 17.6599 5.95001L22.2099 5.19001L21.3453 3.6Z" fill="#1C1C1C"/>
</svg>

<svg xmlns="http://www.w3.org/2000/svg" width="32" height="32" fill="none"><path fill="#2D242D" d="M23.59 12.34c.22-.45.34-.95.34-1.48 0-.7-.21-1.35-.57-1.89-.36-.56-.55-1.2-.55-1.85v-.01a3.43 3.43 0 0 0-3.43-3.43c-.19 0-.36-.09-.47-.24a3.414 3.414 0 0 0-2.79-1.43c-1.15 0-2.17.57-2.79 1.43a.56.56 0 0 1-.46.24 3.43 3.43 0 0 0-3.43 3.43v.01c0 .66-.19 1.3-.55 1.84-.36.54-.57 1.19-.57 1.89 0 .53.12 1.04.34 1.48.07.15.07.33 0 .48-.22.44-.34.94-.34 1.46 0 1.85 1.5 3.35 3.35 3.35h8.92c1.85 0 3.35-1.5 3.35-3.35 0-.53-.12-1.02-.34-1.46a.52.52 0 0 1-.01-.47Z"/><path fill="#212121" d="M11.412 16.5h9.175c-1.396-.642-2.95-1-4.587-1-1.637 0-3.191.358-4.588 1ZM23 18.5H9L7 24l2 6h14l2-6-2-5.5Z"/><path fill="#000" d="M23 30V18.594c-1.37 2.46-3.982 4.126-7 4.126a7.99 7.99 0 0 1-7-4.124V30H5v-3.5c-.01-3.41 1.57-6.47 4-8.5v.013a10.982 10.982 0 0 1 7-2.513c2.661 0 5.099.939 7 2.512V18c2.45 2.02 4 5.09 4 8.5V30h-4Z"/><path fill="#000" d="M12.5 29.99v-5.25c0-.28-.22-.5-.5-.5s-.5.22-.5.5v5.25h1ZM16.5 29.99v-5.25c0-.28-.22-.5-.5-.5s-.5.22-.5.5v5.25h1ZM20.5 29.99v-5.25c0-.28-.22-.5-.5-.5s-.5.22-.5.5v5.25h1Z"/><path fill="#8B5C56" d="m16.92 18.28-.65.58c-.16.14-.39.14-.55 0l-.65-.58a3.449 3.449 0 0 1-1.14-2.55v-3.09c0-1.14.92-2.06 2.06-2.06 1.14 0 2.06.92 2.06 2.06v3.09c0 .97-.41 1.9-1.13 2.55ZM13.161 10.66a1.63 1.63 0 1 1-3.26 0 1.63 1.63 0 0 1 3.26 0ZM22.359 10.66a1.63 1.63 0 1 1-3.26 0 1.63 1.63 0 0 1 3.26 0Z"/><path fill="#966661" d="M20.19 7.58h-3.3c-1.31 0-2.53-.65-3.27-1.73a.275.275 0 0 0-.48.05l-.09.21c-.23.57-.68 1.02-1.22 1.27-.04.01-.08.03-.11.04-.25.12-.81.5-.83 1.48l.14 3.29c.12 2.92 2.37 4.87 5.1 4.87 2.73 0 4.98-1.95 5.1-4.87l.13-3.13c-.02-1.38-.98-1.47-1.17-1.48Z"/><path fill="#990838" d="M16.13 13.94c-.54 0-1.05-.13-1.47-.35-.15-.08-.3.09-.21.23.36.55.98.92 1.68.92s1.33-.37 1.68-.92c.09-.14-.07-.3-.21-.23-.43.22-.93.35-1.47.35Z"/><path fill="#75443E" d="m15.74 10.57-.53 1.7c-.11.35.15.7.52.7h.78c.37 0 .63-.35.52-.7l-.53-1.7c-.11-.37-.64-.37-.76 0Z"/><path fill="#000" d="M13.42 9.5c.59 0 1.07.4 1.37.86-.254.078-.501.148-.745.217-.446.127-.882.251-1.335.413l-.5-.45a.44.44 0 0 1 .03-.68c.33-.23.77-.36 1.18-.36ZM18.86 9.5c-.58 0-1.06.41-1.36.86.267.083.527.157.786.231.428.122.851.243 1.294.399l.5-.45a.44.44 0 0 0-.04-.68 2.13 2.13 0 0 0-1.18-.36Z"/><path fill="#fff" d="M12.2 10.7c.16-.63.73-1.1 1.41-1.1.7 0 1.29.5 1.42 1.17.03.15-.09.28-.24.28h-2.31c-.19 0-.32-.17-.28-.35ZM20.08 10.7c-.16-.63-.73-1.1-1.41-1.1-.7 0-1.29.5-1.42 1.17-.03.15.09.28.24.28h2.31c.19 0 .32-.17.28-.35Z"/><path fill="#7D4533" d="M12.89 10.81c0-.51.42-.93.93-.93s.93.41.93.92c0 .09-.01.17-.04.26h-1.79c-.02-.08-.03-.16-.03-.25ZM19.39 10.81c0-.51-.42-.93-.93-.93s-.93.41-.92.93c0 .09.01.17.03.25h1.79c.02-.08.03-.16.03-.25Z"/><path fill="#000" d="M13.82 10.27a.534.534 0 0 1 .47.78h-.94a.534.534 0 0 1 .47-.78ZM18.46 10.27a.534.534 0 0 0-.47.78h.94a.534.534 0 0 0-.47-.78Z"/><path fill="#fff" d="M13.67 10.44a.17.17 0 1 1-.34 0 .17.17 0 0 1 .34 0ZM18.32 10.44a.17.17 0 1 1-.34 0 .17.17 0 0 1 .34 0Z"/><path fill="#372128" d="M19.66 8.93c.05.03.09.04.14.04.1 0 .19-.05.24-.14.08-.13.03-.3-.1-.38l-.009-.004c-.103-.055-.973-.518-1.97-.336-.15.02-.25.17-.22.32.02.15.17.25.32.22.767-.137 1.46.21 1.58.271a.426.426 0 0 0 .02.01ZM12.21 8.83c.05.09.14.14.24.14.05 0 .09-.01.14-.04l.018-.008c.12-.06.814-.399 1.582-.262.15.03.29-.07.31-.23a.273.273 0 0 0-.22-.32c-.989-.182-1.857.28-1.961.335l-.009.005c-.13.08-.18.25-.1.38Z"/><path fill="#F9C23C" d="M25.33 13.78a.861.861 0 0 0-.82-.61c-.39 0-.71.25-.82.61l-.58 2.11c-.07.24.11.48.36.48h2.07c.25 0 .43-.24.36-.48l-.57-2.11Z"/><path fill="#1C1C1C" d="M21.345 3.6h2.765v8.08a.86.86 0 1 0 .8 0V2.8h-.01c0-.44-.36-.8-.8-.8H8.14c-.44 0-.8.36-.8.8 0 .44.36.8.8.8h2.77l-.88 1.6 4.56.76c1.02.15 2.05.15 3.07-.01l4.55-.76-.865-1.59Z"/></svg>
